X: 1
T: Samiotissa
T: Girl from Samos
O: Greece
R: kalamatianos
Z: John Chambers <jc@trillian.mit.edu> http://trillian.mit.edu/~jc/music/
N: The lower line should be considered the melody.
N: The instrumental interlude here is a "generic" interlude used in much Greek music.
M: 7/8
L: 1/8
K: G
z[ge][fd][ec] \
| "D7"[d2B][dB] [cA][BG] [cA][dB] | "G"[B2G][cA] [dB][ge][fd][ec] \
| "D7"[d2B][dB] [cA][BG] [cA][dB] |1 "G"[B3G] :|2 "G"[B3G] z2 ||
|: [D2G] \
| "G"[G2B][FA] [G2B] [A2c] | [B2d][Ac] [G4B] \
| "C"[ce][ce][ce] [ce][Bd] [Ac][GB] |1 "G"[B3d] z2 :|2 "G"[B3d] z2 [Bd][ce] ||
|: "D7"[df][df][df] "C"[eg][df] [ce][Bd] \
| "D7"[A2c][ce] "G"[Bd][Ac] [GB][Ac] \
| [B2d][Bd] "D7"[Ac][GB] [Ac][Bd] \
|1 "G"[G2B][Ac] [B2d][c2e] :|2 "G"[G3B] |]


